**kern	**kern	**dynam
*part1	*part1	*part1
*staff2	*staff1	*
*I"Piano	*	*
*clefF4	*clefG2	*
*k[b-]	*k[b-]	*
=1	=1	=1
.	8qqb-;/	.
*	*^	*
4Bn;	4a-X;	4f	.
4c	4g	4e	.
*	*v	*v	*
=	=	=
4F	16cLL	mf
.	16f	.
.	16an	.
.	16fJJ	.
4G	16cLL	.
.	16e	.
.	16b-	.
.	16eJJ	.
=	=	=
4A	16cLL	.
.	16f	.
.	16cc	.
.	16fJJ	.
4F	16cLL	.
.	16f	.
.	16a	.
.	16fJJ	.
=	=	=
2r	16cLL	.
.	16f	.
.	16aJJ	.
.	16r	.
.	4r	.
=	=	=
4A	16cLL	.
.	16f	.
.	16cc	.
.	16fJJ	.
4F	16cLL	.
.	16f	.
.	16a	.
.	16fJJ	.
=	=	=
4B-	16eLL	.
.	16g	.
.	16dd	.
.	16gJJ	.
4A	16fLL	.
.	16a	.
.	16cc	.
.	16aJJ	.
=	=	=
4G	16gLL	.
.	16b-	.
.	16ee	.
.	16b-JJ	.
4C	16gLL	.
.	16b-	.
.	16ee	.
.	16b-JJ	.
=	=	=
*-	*-	*-
!!!system-decoration: {(s1,s2)}
